X:1
T:Domine, salva nos
T:Domine, salva nos 
T:Seth Calvisius
T:Source : Biciniorum---Leipzig---J.Apelio---1612. Editor : André Vierendeels (22/04/15).
C:Seth Calvisius
%%score [ 1 2 ]
L:1/8
Q:1/4=90
M:4/2
K:F
V:1 treble nm="1.Vox" snm="1.V"
V:2 treble nm="2.Vox" snm="2.V"
V:1
 z8 A6 A2 | A4 B6 A2 A4 | c6 c2 c4 d4- | d2 c2 c4 z2 d2 AGFE | D4 D4 z2 d2 AGFE | D4 D4 F6 F2 | %6
w: Do- mi-|ne, sal- va nos,|Do- mi- ne sal-|* va nos, pe- ri- * * *|* mus, pe- ri- * * *|* mus, Do- mi-|
 F4 A6 F2 F4 | z2 A2 AGFE D4 D4 | z2 d2 AGFE D4 D4 | z2 A2 B4 A4 z2 D2 | DEFG A2 A2 z2 F2 FGAB | %11
w: ne sal- va nos,|pe- ri- * * * * mus,|pe- ri- * * * * mus,|pe- ri- mus et|sur- * * * * gens, et sur- * * *|
 c2 c2 z2 A2 A3 B cd c2 | F6 B3 B B2 F2 d2- | dd d2 G2 d3 cBA G2 D2 | z2 DE FGAF G2 F2 E4 | %15
w: * gens, et sur- * * * *|gens im- pe- ra- vit, im-|* pe- ra- vit ven- * * * * tis,|ven- * * * * * * * *|
 D4 z2 A3 GFE D4 | E2 D4 ^C2 D2 d3 cBA | G2 D2 z2 d3 cBA B2 AG | A2 G2 F2 C4 D4 ^C2 | %19
w: tis, ven- * * * *|tis et ma- ri, ven- * * *|* tis, ven- * * * * * *|* tis et ma- * *|
 D2 D2 F2 G2 A4 z2 F2 |"^-natural" G2 B2 A2 d3 c/B/ c2 d2 B2 | A4 D2 G3 FFE/D/ F2 E2 | %22
w: ri, et fa- cta est, et|fa- cta est tran- * * * quil- li-|tas, tran- quil- * * * * * li-|
 D2 D2 d2 cB A4 G4 | F4 E2 D4 ^C2 D2 D2 | A2 F2 E4 z2 D2 d2 cB | A4 G4 F4 E4 | D16 |] %27
w: tas, tran- quil- * * * *|li- tas ma- * gna, et|fa- cta est tran- quil- * *|* li- tas ma-|gna.|
V:2
 D6 D2 D4 F4- | F2 D2 D4 F6 F2 | F4 A6 F2 F4 | z2 A2 AGFE D4 D4 | z2 d2 AGFE D4 D4 | z2 A2 B4 A8 | %6
w: Do- mi- ne, sal-|* va nos, Do- mi-|ne sal- va nos|pe- ri- * * * * mus|pe- ri- * * * * mus,|pe- ri- mus,|
 c6 c2 c4 d4- | d2 c2 c4 z2 d2 AGFE | D4 D4 z2 d2 AGFE | D4 D4 z2 D2 DEFG | %10
w: Do- mi- ne, sal-|* va nos, pe- ri- * * *|* mus, pe- ri- * * *|* mus, et sur- * * *|
 A2 A2 z2 F2 FGAB c2 c2 | z2 A2 ABcd c4 F4 | A3 A A2 D2 G3 G G2 ^F2 | %13
w: * gens, et sur- * * * * gens,|et sur- * * * * gens|im- pe- ra- vit, im- pe- ra- vit,|
"^-natural" B3 B B2 G2 d3 c B2 AG |"^#" AGFE DEFD E2 D4 C2 | D2 A3 GFE D2 D2 z2 A2 | %16
w: im- pe- ra- vit ven- * * * *|* * * * * * tis, et ven- * *|tis, ven- * * * * tis, ven-|
 E2 F2 E4 D4 z2 d2- | dcBA G2 D2 z2 d4 cB | c2 B2 A4 G2 F2 E4 | D4 z2 E2 F2 G2 A4 | %20
w: tis et ma- ri, ven-|* * * * * tis, ven- * *|tis et ma- * * *|ri, et fa- cta est,|
 z2 d2 c2 B2 A4 D2 G2- | GFFE/D/ F2 E2 D4 z2 G2 | A2 GF G2 G2 F2 D2 d2 cB | A4 G2 F2 E4 D4 | %24
w: et fa- cta est tran- quil-|* * * * * * li- tas, tran-|quil- * * * li- tas, tran- quil- * *|* li- tas ma- gna,|
 D2 d4 cB A4 G4 | F4 E6 D4 ^C2 | D16 |] %27
w: tran- quil- * * * li-|tas ma- * *|gna.|

